assets/svg/logo.svg

<svg width="103" height="78" viewBox="0 0 103 78" fill="none" xmlns="http://www.w3.org/2000/svg">
<line x1="61.8939" y1="23.4089" x2="61.8939" y2="76.7816" stroke="url(#paint0_linear_164_1039)" stroke-width="3.01298"/>
<line x1="56.3563" y1="75.6707" x2="67.2435" y2="75.6707" stroke="url(#paint1_linear_164_1039)" stroke-width="2.22198" stroke-linecap="round"/>
<path d="M10.4812 53.1847C12.5565 53.1847 14.1463 53.6988 15.2506 54.7269C16.3739 55.736 16.9355 57.183 16.9355 59.0679C16.9355 60.5339 16.5928 61.8286 15.9074 62.9519C15.222 64.0562 14.251 64.9225 12.9944 65.5508C11.7378 66.16 10.2908 66.4647 8.6534 66.4647H7.25401L7.45392 71.691H1.71355L1.99914 66.2648L1.71355 53.2132L10.4812 53.1847ZM9.45306 62.4664C9.96712 62.1808 10.3384 61.8191 10.5669 61.3811C10.8144 60.9242 10.9381 60.3435 10.9381 59.639C10.9381 58.8013 10.7382 58.192 10.3384 57.8113C9.93856 57.4114 9.31026 57.1925 8.45349 57.1544L7.42536 57.2401L7.31113 62.3522L9.45306 62.4664ZM23.8585 57.8684C25.6101 57.8684 26.9619 58.2301 27.9139 58.9536C28.8659 59.6581 29.3419 60.6767 29.3419 62.0094C29.3419 62.3902 29.3038 63.3993 29.2276 65.0367C29.1515 66.4837 29.1134 67.2929 29.1134 67.4642C29.1134 67.6737 29.1419 67.826 29.1991 67.9212C29.2752 68.0164 29.3799 68.064 29.5132 68.064C29.6465 68.064 29.8083 68.0354 29.9987 67.9783L30.3414 68.2639L29.8559 71.1198C29.1515 71.6148 28.2661 71.9004 27.1999 71.9766C26.6478 71.9385 26.1528 71.7481 25.7149 71.4054C25.296 71.0627 24.9723 70.5772 24.7438 69.9489H24.5439C23.7062 70.9199 22.7542 71.6053 21.688 72.0051C20.241 71.9861 19.0796 71.5863 18.2038 70.8056C17.347 70.006 16.9187 68.9207 16.9187 67.5499C16.9187 65.4365 18.0134 64.2275 20.203 63.9229L24.2583 63.3803V63.0376C24.2583 62.5426 24.1536 62.1903 23.9442 61.9809C23.7538 61.7715 23.4111 61.6667 22.9161 61.6667C21.8499 61.6667 20.4695 62.1237 18.775 63.0376L18.4323 62.8091L17.8325 59.2963C18.7084 58.8394 19.6698 58.4872 20.717 58.2396C21.7832 57.9921 22.8304 57.8684 23.8585 57.8684ZM22.6305 66.0363C22.3639 66.0744 22.164 66.1791 22.0307 66.3504C21.9165 66.5027 21.8594 66.7407 21.8594 67.0644C21.8594 67.826 22.2116 68.2068 22.9161 68.2068C23.373 68.2068 23.8204 68.0545 24.2583 67.7498V65.8078L22.6305 66.0363ZM40.9967 58.1825C41.2442 58.1825 41.4632 58.2016 41.6536 58.2396V63.2375L41.111 63.4088C40.8634 63.2565 40.5207 63.1804 40.0828 63.1804C39.664 63.1804 39.2165 63.2756 38.7406 63.466C38.2836 63.6564 37.8552 63.9229 37.4554 64.2656V65.6936L37.6839 71.691H32.1148L32.3719 66.2648L32.172 58.5252L37.4554 58.154V60.6672H37.7124C38.5311 59.0107 39.6259 58.1825 40.9967 58.1825ZM52.8948 64.1799C53.7896 66.0077 54.9986 68.2068 56.5218 70.7771L56.4932 71.3483C55.2557 71.5958 53.5136 71.8243 51.2669 72.0337L50.6957 71.7481C49.5724 69.6918 48.6204 67.569 47.8398 65.3794V65.6936L48.0683 71.691H42.4993L42.7563 66.2648L42.5564 52.0138L48.0969 51.6425L47.8684 63.8658L50.0389 59.8104L50.6386 58.2111H56.3219L52.8948 64.1799Z" fill="url(#paint2_linear_164_1039)"/>
<path d="M83.2641 65.7518L83.6211 66.2063L83.2316 70.9455H68.4296L68.7542 64.778L68.4296 49.9435H83.4913L83.8484 50.398L83.4264 55.1372L78.2651 54.9424H74.9217L74.8568 57.8964H78.0704L81.4463 57.799L81.8033 58.2534L81.4138 62.9927L77.6484 62.8953H74.7269L74.6945 64.1288L74.7594 65.9466H77.8756L83.2641 65.7518ZM101.643 54.5854L92.716 66.1414H97.9422L101.935 65.8492L102.13 66.1414L101.61 71.1078L95.8322 70.9455H88.3663L85.0878 71.1403V66.4984L94.1767 54.7477H89.0804L85.1852 55.0723L84.9579 54.8126L85.4124 49.8461L90.2815 49.9435H99.1757L101.643 49.9111V54.5854Z" fill="url(#paint3_linear_164_1039)"/>
<circle cx="62.2684" cy="16.3864" r="16.3864" fill="url(#paint4_linear_164_1039)"/>
<circle cx="62.2684" cy="16.3864" r="13.2392" fill="url(#paint5_linear_164_1039)" stroke="url(#paint6_linear_164_1039)" stroke-width="0.395201"/>
<path d="M60.5532 18.3857V23.5715H56.8686V8.28709H62.9676C64.1364 8.28709 65.1686 8.50404 66.0644 8.93794C66.9672 9.36484 67.6635 9.97719 68.1534 10.775C68.6503 11.5658 68.8987 12.4651 68.8987 13.4729C68.8987 14.9635 68.3634 16.1567 67.2926 17.0525C66.2289 17.9413 64.7662 18.3857 62.9047 18.3857H60.5532ZM60.5532 15.5409H62.9676C63.6815 15.5409 64.2239 15.3624 64.5948 15.0055C64.9727 14.6486 65.1616 14.1447 65.1616 13.4939C65.1616 12.78 64.9692 12.2097 64.5843 11.7828C64.1994 11.3559 63.6745 11.1389 63.0096 11.1319H60.5532V15.5409Z" fill="#FBFBFB"/>
<defs>
<linearGradient id="paint0_linear_164_1039" x1="60.2502" y1="23.4089" x2="43.8943" y2="28.2822" gradientUnits="userSpaceOnUse">
<stop stop-color="#613EEA"/>
<stop offset="1" stop-color="#576DEE"/>
</linearGradient>
<linearGradient id="paint1_linear_164_1039" x1="55.2454" y1="76.9189" x2="63.9858" y2="84.124" gradientUnits="userSpaceOnUse">
<stop stop-color="#613EEA"/>
<stop offset="1" stop-color="#576DEE"/>
</linearGradient>
<linearGradient id="paint2_linear_164_1039" x1="5.63726e-07" y1="52.6108" x2="62.9665" y2="60.53" gradientUnits="userSpaceOnUse">
<stop stop-color="#613EEA"/>
<stop offset="1" stop-color="#576DEE"/>
</linearGradient>
<linearGradient id="paint3_linear_164_1039" x1="66.4819" y1="49.4009" x2="107.172" y2="52.2795" gradientUnits="userSpaceOnUse">
<stop stop-color="#613EEA"/>
<stop offset="1" stop-color="#576DEE"/>
</linearGradient>
<linearGradient id="paint4_linear_164_1039" x1="45.8821" y1="4.49827" x2="82.4373" y2="6.79699" gradientUnits="userSpaceOnUse">
<stop stop-color="#613EEA"/>
<stop offset="1" stop-color="#576DEE"/>
</linearGradient>
<linearGradient id="paint5_linear_164_1039" x1="48.8315" y1="6.63812" x2="78.8068" y2="8.52307" gradientUnits="userSpaceOnUse">
<stop stop-color="#613EEA"/>
<stop offset="1" stop-color="#576DEE"/>
</linearGradient>
<linearGradient id="paint6_linear_164_1039" x1="48.8315" y1="6.63812" x2="78.8068" y2="8.52307" gradientUnits="userSpaceOnUse">
<stop stop-color="#613EEA"/>
<stop offset="1" stop-color="#576DEE"/>
</linearGradient>
</defs>
</svg>

<svg width="103" height="78" fill="none" xmlns="http://www.w3.org/2000/svg">
  <path stroke="url(#a)" stroke-width="3.013" d="M61.894 23.409v53.373"/>
  <path stroke="url(#b)" stroke-width="2.222" stroke-linecap="round" d="M56.356 75.671h10.887"/>
  <path d="M10.481 53.185c2.075 0 3.665.514 4.77 1.542 1.123 1.009 1.685 2.456 1.685 4.34 0 1.467-.343 2.762-1.029 3.885-.685 1.104-1.656 1.97-2.913 2.599-1.256.609-2.703.914-4.34.914h-1.4l.2 5.226h-5.74l.285-5.426-.285-13.052 8.767-.028Zm-1.028 9.281c.514-.285.885-.647 1.114-1.085.247-.457.371-1.038.371-1.742 0-.838-.2-1.447-.6-1.828-.4-.4-1.028-.618-1.885-.657l-1.028.086-.114 5.112 2.142.114Zm14.405-4.598c1.752 0 3.104.362 4.056 1.086.952.704 1.428 1.723 1.428 3.055 0 .381-.038 1.39-.114 3.028a103.467 103.467 0 0 0-.115 2.427c0 .21.029.362.086.457a.38.38 0 0 0 .314.143c.133 0 .295-.029.486-.086l.342.286-.485 2.856c-.705.495-1.59.78-2.656.857a2.655 2.655 0 0 1-1.485-.572c-.419-.342-.743-.828-.971-1.456h-.2c-.838.97-1.79 1.656-2.856 2.056-1.447-.019-2.608-.419-3.484-1.2-.857-.799-1.285-1.884-1.285-3.255 0-2.114 1.094-3.322 3.284-3.627l4.055-.543v-.342c0-.495-.104-.848-.314-1.057-.19-.21-.533-.314-1.028-.314-1.066 0-2.447.457-4.141 1.37l-.343-.228-.6-3.513a12.333 12.333 0 0 1 2.885-1.056 13.864 13.864 0 0 1 3.142-.372Zm-1.227 8.168c-.267.038-.467.143-.6.314-.114.153-.172.39-.172.714 0 .762.353 1.143 1.057 1.143.457 0 .904-.152 1.342-.457v-1.942l-1.627.228Zm18.366-7.854c.247 0 .466.02.657.058v4.997l-.543.172c-.248-.152-.59-.229-1.028-.229-.419 0-.866.096-1.342.286-.457.19-.886.457-1.286.8v1.428l.229 5.997h-5.57l.258-5.426-.2-7.74 5.283-.371v2.513h.257c.82-1.656 1.914-2.485 3.285-2.485Zm11.898 5.998c.895 1.828 2.104 4.027 3.627 6.597l-.029.571c-1.237.248-2.98.476-5.226.686l-.571-.286a44.287 44.287 0 0 1-2.856-6.369v.315l.228 5.997H42.5l.257-5.426-.2-14.251 5.54-.372-.228 12.224 2.17-4.056.6-1.599h5.684l-3.427 5.969Z" fill="url(#c)"/>
  <path d="m83.264 65.752.357.454-.39 4.74H68.43l.324-6.168-.324-14.835h15.06l.357.455-.422 4.74-5.16-.196h-3.344l-.065 2.954h3.213l3.376-.097.357.454-.39 4.74-3.765-.098h-2.921l-.032 1.234.064 1.818h3.117l5.388-.195Zm18.379-11.167-8.927 11.556h5.226l3.993-.292.195.292-.52 4.967-5.778-.163h-7.466l-3.278.195v-4.642l9.089-11.75H89.08l-3.895.324-.227-.26.454-4.966 4.87.098h8.894l2.467-.033v4.674Z" fill="url(#d)"/>
  <circle cx="62.268" cy="16.386" r="16.386" fill="url(#e)"/>
  <circle cx="62.268" cy="16.386" r="13.239" fill="url(#f)" stroke="url(#g)" stroke-width=".395"/>
  <path d="M60.553 18.386v5.186H56.87V8.287h6.099c1.168 0 2.2.217 3.096.65.903.428 1.6 1.04 2.09 1.838.496.79.745 1.69.745 2.698 0 1.49-.536 2.684-1.606 3.58-1.064.888-2.527 1.333-4.388 1.333h-2.352Zm0-2.845h2.415c.713 0 1.256-.179 1.627-.536.378-.356.567-.86.567-1.511 0-.714-.193-1.284-.578-1.711-.385-.427-.91-.644-1.574-.651h-2.457v4.409Z" fill="#FBFBFB"/>
  <defs>
    <linearGradient id="a" x1="60.25" y1="23.409" x2="43.894" y2="28.282" gradientUnits="userSpaceOnUse">
      <stop stop-color="#613EEA"/>
      <stop offset="1" stop-color="#576DEE"/>
    </linearGradient>
    <linearGradient id="b" x1="55.245" y1="76.919" x2="63.986" y2="84.124" gradientUnits="userSpaceOnUse">
      <stop stop-color="#613EEA"/>
      <stop offset="1" stop-color="#576DEE"/>
    </linearGradient>
    <linearGradient id="c" x1="0" y1="52.611" x2="62.967" y2="60.53" gradientUnits="userSpaceOnUse">
      <stop stop-color="#613EEA"/>
      <stop offset="1" stop-color="#576DEE"/>
    </linearGradient>
    <linearGradient id="d" x1="66.482" y1="49.401" x2="107.172" y2="52.279" gradientUnits="userSpaceOnUse">
      <stop stop-color="#613EEA"/>
      <stop offset="1" stop-color="#576DEE"/>
    </linearGradient>
    <linearGradient id="e" x1="45.882" y1="4.498" x2="82.437" y2="6.797" gradientUnits="userSpaceOnUse">
      <stop stop-color="#613EEA"/>
      <stop offset="1" stop-color="#576DEE"/>
    </linearGradient>
    <linearGradient id="f" x1="48.831" y1="6.638" x2="78.807" y2="8.523" gradientUnits="userSpaceOnUse">
      <stop stop-color="#613EEA"/>
      <stop offset="1" stop-color="#576DEE"/>
    </linearGradient>
    <linearGradient id="g" x1="48.831" y1="6.638" x2="78.807" y2="8.523" gradientUnits="userSpaceOnUse">
      <stop stop-color="#613EEA"/>
      <stop offset="1" stop-color="#576DEE"/>
    </linearGradient>
  </defs>
</svg>
